build/images/work/metrik/abc.svg

<?xml version="1.0" encoding="utf-8"?>
<!-- Generator: Adobe Illustrator 17.1.0, SVG Export Plug-In . SVG Version: 6.00 Build 0)  -->
<!DOCTYPE svg PUBLIC "-//W3C//DTD SVG 1.1//EN" "http://www.w3.org/Graphics/SVG/1.1/DTD/svg11.dtd">
<svg version="1.1" id="Layer_1" xmlns="http://www.w3.org/2000/svg" xmlns:xlink="http://www.w3.org/1999/xlink" x="0px" y="0px"
	 viewBox="0 0 506.54 495.282" enable-background="new 0 0 506.54 495.282" xml:space="preserve">
<g>
	<path fill="#00C800" d="M91.717,102.991H74.641v-6.804c-1.334,1.334-2.802,2.535-4.402,3.602c-8.672,5.736-19.211,5.736-27.749,0
		c-8.672-5.737-13.875-16.276-13.875-27.749c0-11.339,5.203-21.879,13.875-27.615c8.538-5.736,19.077-5.736,27.749,0
		c1.601,1.067,3.068,2.268,4.402,3.602v-6.27h17.076V102.991z M74.641,69.772c-0.534-5.07-2.535-9.605-6.404-12.274
		c-4.535-3.068-11.473-3.068-16.009,0c-4.535,3.068-6.537,8.805-6.537,14.942s2.002,11.873,6.537,14.941
		c4.536,3.068,11.474,3.068,16.009,0c3.869-2.668,5.87-7.204,6.404-12.273V69.772z"/>
	<path fill="#FFFFFF" d="M133.605,48.027c1.468-1.334,2.936-2.668,4.536-3.735c8.538-5.603,19.077-5.603,27.749,0
		c8.538,5.736,13.874,16.275,13.874,27.749s-5.336,22.012-13.874,27.749c-8.672,5.736-19.211,5.736-27.749,0
		c-1.601-1.067-3.068-2.268-4.536-3.735v6.937h-17.076V11.74h-4.136V0h21.212V48.027z M133.605,75.108
		c0.534,5.07,2.669,9.605,6.404,12.14c4.535,3.068,11.606,3.068,16.009,0c4.535-3.068,6.537-8.671,6.537-14.808
		s-2.002-11.874-6.537-14.942c-4.402-3.068-11.474-3.068-16.009,0c-3.735,2.668-5.87,7.071-6.404,12.274V75.108z"/>
	<path fill="#FFFFFF" d="M254.605,95.12c-2.001,2.001-4.27,3.735-6.671,5.069c-10.005,5.737-22.146,5.737-32.15,0
		c-9.873-5.736-16.01-16.275-16.01-27.749s6.137-22.012,16.01-27.749c10.005-5.736,22.146-5.736,32.15,0
		c2.401,1.468,4.67,3.068,6.671,5.07l-11.206,11.073c-0.935-1.334-2.001-2.535-3.469-3.469c-4.536-3.068-11.606-3.068-16.143,0
		s-6.67,8.805-6.67,15.075s2.134,12.007,6.67,15.075c4.536,3.202,11.606,3.202,16.143,0c1.468-0.934,2.534-2.135,3.469-3.469
		L254.605,95.12z"/>
	<path fill="#FFFFFF" d="M319.439,102.991v-6.937c-1.467,1.334-2.935,2.668-4.535,3.735c-8.538,5.603-19.077,5.603-27.749,0
		c-8.538-5.737-13.874-16.276-13.874-27.749s5.336-22.012,13.874-27.749c8.672-5.737,19.211-5.737,27.749,0
		c1.601,1.067,3.068,2.268,4.535,3.735V11.74h-4.136V0h21.212v102.991H319.439z M319.439,69.639
		c-0.533-5.069-2.668-9.605-6.403-12.14c-4.536-3.068-11.606-3.068-16.009,0c-4.536,3.068-6.537,8.672-6.537,14.809
		s2.001,11.873,6.537,14.941c4.402,3.068,11.473,3.068,16.009,0c3.735-2.668,5.87-7.204,6.403-12.273V69.639z"/>
	<path fill="#00C800" d="M375.336,77.777c0.4,3.602,2.802,7.737,5.737,9.739c4.669,3.202,11.739,3.202,16.275,0
		c1.334-0.934,2.802-1.734,3.735-3.068L411.89,95.12c-2.001,2.001-4.136,3.735-6.67,5.203c-9.872,5.603-22.146,5.603-32.018,0
		c-9.872-5.737-16.01-16.409-16.01-27.882s6.138-22.012,16.01-27.749c9.872-5.736,22.146-5.736,32.018,0
		c10.006,5.737,15.342,15.476,14.141,33.085H375.336z M403.352,67.237c-0.934-4.002-2.801-7.737-6.003-9.872
		c-4.536-3.068-11.606-3.068-16.275,0c-3.068,2.135-5.07,5.87-6.004,9.872H403.352z"/>
	<path fill="#FFFFFF" d="M447.108,31.484c0.534-16.009,8.805-22.546,18.544-22.413c11.74,0.133,16.275,7.337,16.275,7.337
		l-6.67,11.34c-2.001-2.135-5.47-3.335-8.538-1.601s-2.936,8.671-2.936,8.671v8.405h8.938V59.9h-8.938v43.091h-16.676V59.9h-8.938
		V43.224h8.938V31.484z"/>
	<path fill="#FFFFFF" d="M71.04,222.991c0,45.759-54.697,32.284-60.701,24.547l7.471-13.475c2.002,0.801,10.006,6.671,23.747,5.069
		c5.736-0.667,12.273-4.802,12.273-15.875v-0.934c-1.334,1.467-2.935,2.802-4.536,3.868c-8.671,5.737-19.21,5.737-27.748,0
		c-8.672-5.736-14.008-16.275-14.008-27.748c0-11.474,5.336-22.013,14.008-27.749c8.538-5.736,19.077-5.736,27.748,0
		c1.602,1.067,3.202,2.401,4.536,3.869v-6.404h17.21V222.991z M53.83,198.844c0-6.27-2.001-11.873-6.537-14.941
		s-11.473-3.068-16.009,0s-6.537,8.672-6.537,14.941c0,6.137,2.001,11.74,6.537,14.809s11.473,3.068,16.009,0
		S53.83,204.98,53.83,198.844z"/>
	<path fill="#FFFFFF" d="M138.942,197.91c0-9.472-3.335-15.342-12.674-15.342c-9.338,0-12.674,7.471-12.674,16.143v30.684H96.519
		v-91.251h-4.135v-11.74h21.211v51.229c6.671-13.074,21.746-11.606,26.682-10.406c9.205,2.401,15.742,10.806,15.742,26.548
		l0.134,35.62h-17.21V197.91z"/>
	<path fill="#FFFFFF" d="M181.632,229.394V179.9h-4.136v-11.74h21.212v61.234H181.632z M178.697,147.882
		c0-6.27,5.069-11.473,11.473-11.473c6.271,0,11.473,5.203,11.473,11.473c0,6.404-5.202,11.473-11.473,11.473
		C183.767,159.355,178.697,154.286,178.697,147.882z"/>
	<path fill="#00C800" d="M226.321,254.475V179.9h-4.002v-11.74h21.212v86.315H226.321z M223.521,147.882
		c0-6.27,5.069-11.473,11.339-11.473c6.404,0,11.474,5.203,11.474,11.473c0,6.271-5.069,11.473-11.474,11.473
		C228.59,159.355,223.521,154.153,223.521,147.882z"/>
	<path fill="#FFFFFF" d="M326.108,229.394h-19.611l-12.14-24.014h-6.137v24.014h-17.076v-81.245h-4.136v-11.74h21.212v51.762h2.401
		l15.875-20.012h22.813l-21.879,27.082L326.108,229.394z"/>
	<path fill="#FFFFFF" d="M352.788,229.394v-81.112h-4.136V136.41h21.212v92.985H352.788z"/>
	<path fill="#FFFFFF" d="M480.592,197.91c0-9.338-3.469-15.208-12.674-15.208c-8.404,0-11.873,5.87-12.54,13.341v33.352h-17.076
		V197.91c0-9.338-3.335-15.208-12.674-15.208c-9.338,0-12.674,7.471-12.674,16.142v30.551h-17.076v-49.628h-4.002V168.16h21.078
		v9.605c6.671-13.074,21.746-11.606,26.682-10.405c5.604,1.467,10.272,5.202,12.94,11.473c10.807-14.941,24.414-12.674,29.35-11.473
		c9.072,2.401,15.609,10.806,15.609,26.548l0.134,35.486h-17.077V197.91z"/>
	<path fill="#FFFFFF" d="M46.56,318.313c0-9.472-3.469-15.342-12.674-15.342c-9.339,0-12.674,7.471-12.674,16.143v30.684H4.136
		v-49.494H0v-11.74h21.212v9.473c6.67-13.074,21.745-11.606,26.682-10.272c9.071,2.268,15.742,10.672,15.742,26.548l0.133,35.486
		H46.56V318.313z"/>
	<path fill="#00C800" d="M147.681,318.98c0,11.474-6.004,22.013-16.009,27.749c-9.872,5.736-22.013,5.736-31.885,0
		c-10.006-5.736-16.009-16.275-16.009-27.749c0-11.34,6.003-22.012,16.009-27.749c9.872-5.603,22.013-5.603,31.885,0
		C141.677,296.968,147.681,307.64,147.681,318.98z M123.801,303.905c-4.536-3.068-11.606-3.068-16.143,0
		c-4.536,3.202-6.67,8.938-6.67,15.075c0,6.271,2.134,12.007,6.67,15.075s11.606,3.068,16.143,0c4.535-3.068,6.67-8.805,6.67-15.075
		C130.471,312.843,128.336,307.107,123.801,303.905z"/>
	<path fill="#FFFFFF" d="M188.902,294.833c1.334-1.334,2.802-2.535,4.402-3.603c8.538-5.736,19.211-5.736,27.749,0
		c8.538,5.737,13.874,16.276,13.874,27.749c0,11.34-5.336,21.879-13.874,27.615c-8.538,5.737-19.211,5.737-27.749,0
		c-1.601-1.067-3.068-2.268-4.402-3.602v31.885h-17.21v-74.575h-4.002v-11.74h21.212V294.833z M188.902,321.915
		c0.533,5.069,2.535,9.605,6.403,12.273c4.402,3.068,11.474,3.068,16.009,0c4.402-3.068,6.537-8.806,6.537-14.942
		s-2.135-11.873-6.537-14.941c-4.535-3.068-11.606-3.068-16.009,0c-3.868,2.668-5.87,7.204-6.403,12.273V321.915z"/>
	<path fill="#FFFFFF" d="M316.839,374.878H300.43v-34.152c-1.334,1.2-2.668,2.401-4.269,3.468c-8.138,5.47-18.277,5.47-26.549,0
		c-8.271-5.47-13.34-15.608-13.34-26.548s5.069-21.078,13.34-26.548c8.271-5.47,18.411-5.47,26.549,0
		c1.601,0.934,2.935,2.135,4.269,3.469v-6.004h16.409V374.878z M300.43,315.378c-0.533-4.937-2.401-9.205-6.137-11.74
		c-4.269-2.935-10.939-2.935-15.342,0c-4.269,2.936-6.271,8.405-6.271,14.274c0,5.87,2.002,11.34,6.271,14.275
		c4.402,2.935,11.073,2.935,15.342,0c3.735-2.535,5.604-6.805,6.137-11.74V315.378z"/>
	<path fill="#FFFFFF" d="M359.527,298.168c6.671-13.074,21.745-11.873,26.682-10.539c1.734,0.4,3.202,1.201,4.669,2.001
		l-10.272,16.009c-2.001-1.734-4.803-2.668-8.404-2.668c-9.339,0-12.674,7.471-12.674,16.143v30.684h-17.076v-49.494h-4.269v-11.74
		h21.345V298.168z"/>
	<path fill="#00C800" d="M444.239,307.507c-4.536-4.937-12.273-6.671-16.81-5.47c-3.202,0.801-4.536,3.869-2.802,6.27
		c2.268,3.068,10.673,3.736,18.01,8.139c14.942,8.938,13.475,26.014,0.134,32.151c-8.805,4.002-21.612,3.735-32.018-2.002
		c-2.668-1.601-7.071-4.136-9.072-6.403l8.538-11.606c1.868,2.135,7.204,4.937,10.539,6.537c6.271,2.668,15.609,3.869,16.943-1.601
		c1.067-4.402-6.271-6.537-11.474-8.139c-8.671-2.801-15.342-5.736-18.01-12.807c-2.935-8.138-0.4-20.011,13.875-24.28
		c7.203-2.135,14.274-1.067,19.344,0.667c5.604,2.001,9.205,5.069,11.74,7.871L444.239,307.507z"/>
	<path fill="#FFFFFF" d="M497.335,305.639v44.158h-17.077v-44.158h-9.205v-17.076h9.205V259.48h17.077v29.083h9.205v17.076H497.335z
		"/>
	<path fill="#FFFFFF" d="M45.225,470.201v-9.472c-6.537,12.94-21.479,11.606-26.682,10.272C9.472,468.6,2.935,460.329,2.935,444.453
		v-35.486h16.942v31.484c0,9.205,3.603,15.476,12.808,15.476s12.54-7.738,12.54-16.409v-30.551h17.21v49.628h4.002v11.606H45.225z"
		/>
	<path fill="#FFFFFF" d="M112.327,470.201l-27.882-61.234h22.412l11.606,39.889l11.606-39.889h22.546l-27.882,61.234H112.327z"/>
	<path fill="#00C800" d="M243.332,470.201h-11.873l-13.207-37.354l-13.208,37.354h-11.739l-26.015-61.234h21.345l10.272,39.889
		l10.006-41.489h18.677l10.14,41.489l10.139-39.889h21.345L243.332,470.201z"/>
	<path fill="#FFFFFF" d="M348.855,470.201h-17.877l-14.274-18.811l-14.408,18.811h-17.743l21.745-32.552l-21.745-28.683h23.213
		l8.938,13.208l8.805-13.208h23.347l-21.879,28.683L348.855,470.201z"/>
	<path fill="#FFFFFF" d="M374.869,495.282l14.274-36.421l-24.947-49.895h19.478l14.141,33.085l11.74-33.085h19.478l-37.221,86.315
		H374.869z"/>
	<path fill="#FFFFFF" d="M505.605,453.125v17.076h-64.169l29.75-44.024h-27.349v-17.21h61.768l-32.151,44.158H505.605z"/>
</g>
</svg>

<svg xmlns="http://www.w3.org/2000/svg" width="507" height="496" viewBox="0 0 507 496">
  <g fill="none" fill-rule="evenodd">
    <path fill="#241D65" d="M91.717,102.991 L74.641,102.991 L74.641,96.187 C73.307,97.521 71.839,98.722 70.239,99.789 C61.567,105.525 51.028,105.525 42.49,99.789 C33.818,94.052 28.615,83.513 28.615,72.04 C28.615,60.701 33.818,50.161 42.49,44.425 C51.028,38.689 61.567,38.689 70.239,44.425 C71.84,45.492 73.307,46.693 74.641,48.027 L74.641,41.757 L91.717,41.757 L91.717,102.991 L91.717,102.991 L91.717,102.991 Z M74.641,69.772 C74.107,64.702 72.106,60.167 68.237,57.498 C63.702,54.43 56.764,54.43 52.228,57.498 C47.693,60.566 45.691,66.303 45.691,72.44 C45.691,78.577 47.693,84.313 52.228,87.381 C56.764,90.449 63.702,90.449 68.237,87.381 C72.106,84.713 74.107,80.177 74.641,75.108 L74.641,69.772 L74.641,69.772 L74.641,69.772 Z"/>
    <path fill="#FFFFFF" d="M133.605,48.027 C135.073,46.693 136.541,45.359 138.141,44.292 C146.679,38.689 157.218,38.689 165.89,44.292 C174.428,50.028 179.764,60.567 179.764,72.041 C179.764,83.515 174.428,94.053 165.89,99.79 C157.218,105.526 146.679,105.526 138.141,99.79 C136.54,98.723 135.073,97.522 133.605,96.055 L133.605,102.992 L116.529,102.992 L116.529,11.74 L112.393,11.74 L112.393,0 L133.605,0 L133.605,48.027 L133.605,48.027 L133.605,48.027 Z M133.605,75.108 C134.139,80.178 136.274,84.713 140.009,87.248 C144.544,90.316 151.615,90.316 156.018,87.248 C160.553,84.18 162.555,78.577 162.555,72.44 C162.555,66.303 160.553,60.566 156.018,57.498 C151.616,54.43 144.544,54.43 140.009,57.498 C136.274,60.166 134.139,64.569 133.605,69.772 L133.605,75.108 L133.605,75.108 L133.605,75.108 Z M254.605,95.12 C252.604,97.121 250.335,98.855 247.934,100.189 C237.929,105.926 225.788,105.926 215.784,100.189 C205.911,94.453 199.774,83.914 199.774,72.44 C199.774,60.966 205.911,50.428 215.784,44.691 C225.789,38.955 237.93,38.955 247.934,44.691 C250.335,46.159 252.604,47.759 254.605,49.761 L243.399,60.834 C242.464,59.5 241.398,58.299 239.93,57.365 C235.394,54.297 228.324,54.297 223.787,57.365 C219.25,60.433 217.117,66.17 217.117,72.44 C217.117,78.71 219.251,84.447 223.787,87.515 C228.323,90.717 235.393,90.717 239.93,87.515 C241.398,86.581 242.464,85.38 243.399,84.046 L254.605,95.12 L254.605,95.12 L254.605,95.12 Z M319.439,102.991 L319.439,96.054 C317.972,97.388 316.504,98.722 314.904,99.789 C306.366,105.392 295.827,105.392 287.155,99.789 C278.617,94.052 273.281,83.513 273.281,72.04 C273.281,60.567 278.617,50.028 287.155,44.291 C295.827,38.554 306.366,38.554 314.904,44.291 C316.505,45.358 317.972,46.559 319.439,48.026 L319.439,11.74 L315.303,11.74 L315.303,0 L336.515,0 L336.515,102.991 L319.439,102.991 L319.439,102.991 L319.439,102.991 Z M319.439,69.639 C318.906,64.57 316.771,60.034 313.036,57.499 C308.5,54.431 301.43,54.431 297.027,57.499 C292.491,60.567 290.49,66.171 290.49,72.308 C290.49,78.445 292.491,84.181 297.027,87.249 C301.429,90.317 308.5,90.317 313.036,87.249 C316.771,84.581 318.906,80.045 319.439,74.976 L319.439,69.639 L319.439,69.639 L319.439,69.639 Z"/>
    <path fill="#241D65" d="M375.336,77.777 C375.736,81.379 378.138,85.514 381.073,87.516 C385.742,90.718 392.812,90.718 397.348,87.516 C398.682,86.582 400.15,85.782 401.083,84.448 L411.89,95.12 C409.889,97.121 407.754,98.855 405.22,100.323 C395.348,105.926 383.074,105.926 373.202,100.323 C363.33,94.586 357.192,83.914 357.192,72.441 C357.192,60.968 363.33,50.429 373.202,44.692 C383.074,38.956 395.348,38.956 405.22,44.692 C415.226,50.429 420.562,60.168 419.361,77.777 L375.336,77.777 L375.336,77.777 L375.336,77.777 Z M403.352,67.237 C402.418,63.235 400.551,59.5 397.349,57.365 C392.813,54.297 385.743,54.297 381.074,57.365 C378.006,59.5 376.004,63.235 375.07,67.237 L403.352,67.237 L403.352,67.237 L403.352,67.237 Z"/>
    <path fill="#FFFFFF" d="M447.108,31.484 C447.642,15.475 455.913,8.938 465.652,9.071 C477.392,9.204 481.927,16.408 481.927,16.408 L475.257,27.748 C473.256,25.613 469.787,24.413 466.719,26.147 C463.651,27.881 463.783,34.818 463.783,34.818 L463.783,43.223 L472.721,43.223 L472.721,59.9 L463.783,59.9 L463.783,102.991 L447.107,102.991 L447.107,59.9 L438.169,59.9 L438.169,43.224 L447.107,43.224 L447.107,31.484 L447.108,31.484 L447.108,31.484 Z M71.04,222.991 C71.04,268.75 16.343,255.275 10.339,247.538 L17.81,234.063 C19.812,234.864 27.816,240.734 41.557,239.132 C47.293,238.465 53.83,234.33 53.83,223.257 L53.83,222.323 C52.496,223.79 50.895,225.125 49.294,226.191 C40.623,231.928 30.084,231.928 21.546,226.191 C12.874,220.455 7.538,209.916 7.538,198.443 C7.538,186.969 12.874,176.43 21.546,170.694 C30.084,164.958 40.623,164.958 49.294,170.694 C50.896,171.761 52.496,173.095 53.83,174.563 L53.83,168.159 L71.04,168.159 L71.04,222.991 L71.04,222.991 L71.04,222.991 Z M53.83,198.844 C53.83,192.574 51.829,186.971 47.293,183.903 C42.757,180.835 35.82,180.835 31.284,183.903 C26.748,186.971 24.747,192.575 24.747,198.844 C24.747,204.981 26.748,210.584 31.284,213.653 C35.82,216.722 42.757,216.721 47.293,213.653 C51.829,210.585 53.83,204.98 53.83,198.844 L53.83,198.844 L53.83,198.844 Z M138.942,197.91 C138.942,188.438 135.607,182.568 126.268,182.568 C116.93,182.568 113.594,190.039 113.594,198.711 L113.594,229.395 L96.519,229.395 L96.519,138.144 L92.384,138.144 L92.384,126.404 L113.595,126.404 L113.595,177.633 C120.266,164.559 135.341,166.027 140.277,167.227 C149.482,169.628 156.019,178.033 156.019,193.775 L156.153,229.395 L138.943,229.395 L138.943,197.91 L138.942,197.91 L138.942,197.91 Z M181.632,229.394 L181.632,179.9 L177.496,179.9 L177.496,168.16 L198.708,168.16 L198.708,229.394 L181.632,229.394 L181.632,229.394 L181.632,229.394 Z M178.697,147.882 C178.697,141.612 183.766,136.409 190.17,136.409 C196.441,136.409 201.643,141.612 201.643,147.882 C201.643,154.286 196.441,159.355 190.17,159.355 C183.767,159.355 178.697,154.286 178.697,147.882 L178.697,147.882 L178.697,147.882 Z"/>
    <path fill="#241D65" d="M226.321,254.475 L226.321,179.9 L222.319,179.9 L222.319,168.16 L243.531,168.16 L243.531,254.475 L226.321,254.475 L226.321,254.475 L226.321,254.475 Z M223.521,147.882 C223.521,141.612 228.59,136.409 234.86,136.409 C241.264,136.409 246.334,141.612 246.334,147.882 C246.334,154.153 241.265,159.355 234.86,159.355 C228.59,159.355 223.521,154.153 223.521,147.882 L223.521,147.882 L223.521,147.882 Z"/>
    <polygon fill="#FFFFFF" points="326.108 229.394 306.497 229.394 294.357 205.38 288.22 205.38 288.22 229.394 271.144 229.394 271.144 148.149 267.008 148.149 267.008 136.409 288.22 136.409 288.22 188.171 290.621 188.171 306.496 168.159 329.309 168.159 307.43 195.241"/>
    <polygon fill="#FFFFFF" points="352.788 229.394 352.788 148.282 348.652 148.282 348.652 136.41 369.864 136.41 369.864 229.395 352.788 229.395"/>
    <path fill="#FFFFFF" d="M480.592,197.91 C480.592,188.572 477.123,182.702 467.918,182.702 C459.514,182.702 456.045,188.572 455.378,196.043 L455.378,229.395 L438.302,229.395 L438.302,197.91 C438.302,188.572 434.967,182.702 425.628,182.702 C416.29,182.702 412.954,190.173 412.954,198.844 L412.954,229.395 L395.878,229.395 L395.878,179.767 L391.876,179.767 L391.876,168.16 L412.954,168.16 L412.954,177.765 C419.625,164.691 434.7,166.159 439.636,167.36 C445.24,168.827 449.908,172.562 452.576,178.833 C463.383,163.892 476.99,166.159 481.926,167.36 C490.998,169.761 497.535,178.166 497.535,193.908 L497.669,229.394 L480.592,229.394 L480.592,197.91 L480.592,197.91 L480.592,197.91 Z M46.56,318.313 C46.56,308.841 43.091,302.971 33.886,302.971 C24.547,302.971 21.212,310.442 21.212,319.114 L21.212,349.798 L4.136,349.798 L4.136,300.304 L0,300.304 L0,288.564 L21.212,288.564 L21.212,298.037 C27.882,284.963 42.957,286.431 47.894,287.765 C56.965,290.033 63.636,298.437 63.636,314.313 L63.769,349.799 L46.56,349.799 L46.56,318.313 L46.56,318.313 L46.56,318.313 Z"/>
    <path fill="#241D65" d="M147.681,318.98 C147.681,330.454 141.677,340.993 131.672,346.729 C121.8,352.465 109.659,352.465 99.787,346.729 C89.781,340.993 83.778,330.454 83.778,318.98 C83.778,307.64 89.781,296.968 99.787,291.231 C109.659,285.628 121.8,285.628 131.672,291.231 C141.677,296.968 147.681,307.64 147.681,318.98 L147.681,318.98 L147.681,318.98 Z M123.801,303.905 C119.265,300.837 112.195,300.837 107.658,303.905 C103.122,307.107 100.988,312.843 100.988,318.98 C100.988,325.251 103.122,330.987 107.658,334.055 C112.194,337.123 119.264,337.123 123.801,334.055 C128.336,330.987 130.471,325.25 130.471,318.98 C130.471,312.843 128.336,307.107 123.801,303.905 L123.801,303.905 L123.801,303.905 Z"/>
    <path fill="#FFFFFF" d="M188.902,294.833 C190.236,293.499 191.704,292.298 193.304,291.23 C201.842,285.494 212.515,285.494 221.053,291.23 C229.591,296.967 234.927,307.506 234.927,318.979 C234.927,330.319 229.591,340.858 221.053,346.594 C212.515,352.331 201.842,352.331 193.304,346.594 C191.703,345.527 190.236,344.326 188.902,342.992 L188.902,374.877 L171.692,374.877 L171.692,300.302 L167.69,300.302 L167.69,288.562 L188.902,288.562 L188.902,294.833 L188.902,294.833 L188.902,294.833 Z M188.902,321.915 C189.435,326.984 191.437,331.52 195.305,334.188 C199.707,337.256 206.779,337.256 211.314,334.188 C215.716,331.12 217.851,325.382 217.851,319.246 C217.851,313.11 215.716,307.373 211.314,304.305 C206.779,301.237 199.708,301.237 195.305,304.305 C191.437,306.973 189.435,311.509 188.902,316.578 L188.902,321.915 L188.902,321.915 L188.902,321.915 Z M316.839,374.878 L300.43,374.878 L300.43,340.726 C299.096,341.926 297.762,343.127 296.161,344.194 C288.023,349.664 277.884,349.664 269.612,344.194 C261.341,338.724 256.272,328.586 256.272,317.646 C256.272,306.706 261.341,296.568 269.612,291.098 C277.883,285.628 288.023,285.628 296.161,291.098 C297.762,292.032 299.096,293.233 300.43,294.567 L300.43,288.563 L316.839,288.563 L316.839,374.878 L316.839,374.878 L316.839,374.878 Z M300.43,315.378 C299.897,310.441 298.029,306.173 294.293,303.638 C290.024,300.703 283.354,300.703 278.951,303.638 C274.682,306.574 272.68,312.043 272.68,317.912 C272.68,323.782 274.682,329.252 278.951,332.187 C283.353,335.122 290.024,335.122 294.293,332.187 C298.028,329.652 299.897,325.382 300.43,320.447 L300.43,315.378 L300.43,315.378 L300.43,315.378 Z M359.527,298.168 C366.198,285.094 381.272,286.295 386.209,287.629 C387.943,288.029 389.411,288.83 390.878,289.63 L380.606,305.639 C378.605,303.905 375.803,302.971 372.202,302.971 C362.863,302.971 359.528,310.442 359.528,319.114 L359.528,349.798 L342.452,349.798 L342.452,300.304 L338.183,300.304 L338.183,288.564 L359.528,288.564 L359.528,298.168 L359.527,298.168 L359.527,298.168 Z"/>
    <path fill="#241D65" d="M444.239,307.507 C439.703,302.57 431.966,300.836 427.429,302.037 C424.227,302.838 422.893,305.906 424.627,308.307 C426.895,311.375 435.3,312.043 442.637,316.446 C457.579,325.384 456.112,342.46 442.771,348.597 C433.966,352.599 421.159,352.332 410.753,346.595 C408.085,344.994 403.682,342.459 401.681,340.192 L410.219,328.586 C412.087,330.721 417.423,333.523 420.758,335.123 C427.029,337.791 436.367,338.992 437.701,333.522 C438.768,329.12 431.43,326.985 426.227,325.383 C417.556,322.582 410.885,319.647 408.217,312.576 C405.282,304.438 407.817,292.565 422.092,288.296 C429.295,286.161 436.366,287.229 441.436,288.963 C447.04,290.964 450.641,294.032 453.176,296.834 L444.239,307.507 L444.239,307.507 L444.239,307.507 Z"/>
    <polygon fill="#FFFFFF" points="497.335 305.639 497.335 349.797 480.258 349.797 480.258 305.639 471.053 305.639 471.053 288.563 480.258 288.563 480.258 259.48 497.335 259.48 497.335 288.563 506.54 288.563 506.54 305.639"/>
    <path fill="#FFFFFF" d="M45.225,470.201 L45.225,460.729 C38.688,473.669 23.746,472.335 18.543,471.001 C9.472,468.6 2.935,460.329 2.935,444.453 L2.935,408.967 L19.877,408.967 L19.877,440.451 C19.877,449.656 23.48,455.927 32.685,455.927 C41.89,455.927 45.225,448.189 45.225,439.518 L45.225,408.967 L62.435,408.967 L62.435,458.595 L66.437,458.595 L66.437,470.201 L45.225,470.201 L45.225,470.201 L45.225,470.201 Z"/>
    <polygon fill="#FFFFFF" points="112.327 470.201 84.445 408.967 106.857 408.967 118.463 448.856 130.069 408.967 152.615 408.967 124.733 470.201"/>
    <polygon fill="#241D65" points="243.332 470.201 231.459 470.201 218.252 432.847 205.044 470.201 193.305 470.201 167.29 408.967 188.635 408.967 198.907 448.856 208.913 407.367 227.59 407.367 237.73 448.856 247.869 408.967 269.214 408.967"/>
    <polygon fill="#FFFFFF" points="348.855 470.201 330.978 470.201 316.704 451.39 302.296 470.201 284.553 470.201 306.298 437.649 284.553 408.966 307.766 408.966 316.704 422.174 325.509 408.966 348.856 408.966 326.977 437.649"/>
    <polygon fill="#FFFFFF" points="374.869 495.282 389.143 458.861 364.196 408.966 383.674 408.966 397.815 442.051 409.555 408.966 429.033 408.966 391.812 495.281 374.869 495.281"/>
    <polygon fill="#FFFFFF" points="505.605 453.125 505.605 470.201 441.436 470.201 471.186 426.177 443.837 426.177 443.837 408.967 505.605 408.967 473.454 453.125"/>
  </g>
</svg>
